app/assets/images/heroicons/solid/link-slash.svg

<svg width="24" height="24" viewBox="0 0 24 24" fill="none" xmlns="http://www.w3.org/2000/svg">
<path fill-rule="evenodd" clip-rule="evenodd" d="M19.892 4.08973C18.4276 2.62514 16.0533 2.62514 14.5889 4.08973L10.089 8.59017C10.0149 8.66424 9.94467 8.74054 9.87822 8.81885L14.8436 13.7848C15.2095 12.5152 14.8919 11.0902 13.8921 10.0903C13.5813 9.77941 13.2307 9.53538 12.8575 9.35706C12.4837 9.1785 12.3255 8.73074 12.504 8.35697C12.6826 7.98319 13.1303 7.82495 13.5041 8.00352C14.0289 8.25423 14.5199 8.59666 14.9529 9.02964C16.5536 10.6306 16.9039 13.0067 16.0063 14.9476L21.5207 20.4627C21.8136 20.7556 21.8136 21.2305 21.5207 21.5234C21.2278 21.8163 20.7529 21.8163 20.46 21.5234L2.46036 3.52166C2.16747 3.22874 2.16749 2.75384 2.46041 2.46094C2.75332 2.16805 3.2282 2.16807 3.52109 2.46099L8.81504 7.75555C8.88349 7.67858 8.95456 7.60319 9.02825 7.5295L13.5282 3.02906C15.5784 0.978594 18.9025 0.978594 20.9527 3.02906C23.0029 5.07949 23.0029 8.40387 20.9527 10.4543L19.1958 12.2114C18.9029 12.5044 18.428 12.5044 18.1351 12.2115C17.8422 11.9186 17.8422 11.4437 18.1351 11.1508L19.892 9.39364C21.3565 7.92901 21.3565 5.55436 19.892 4.08973ZM5.84599 11.7729C6.1389 12.0658 6.13892 12.5407 5.84604 12.8336L4.0891 14.5907C2.62465 16.0554 2.62465 18.43 4.0891 19.8946C5.55352 21.3592 7.92779 21.3592 9.39221 19.8946L12.5208 16.7657C12.8137 16.4727 13.2886 16.4727 13.5815 16.7656C13.8744 17.0585 13.8744 17.5334 13.5816 17.8263L10.4529 20.9553C8.40271 23.0058 5.0786 23.0058 3.02837 20.9553C0.978174 18.9049 0.978174 15.5805 3.02837 13.5301L4.78531 11.7729C5.07819 11.48 5.55308 11.48 5.84599 11.7729ZM8.24712 12.0331C8.63782 11.8955 9.0661 12.1007 9.2037 12.4914C9.38378 13.0028 9.67828 13.4833 10.089 13.8941C10.3998 14.205 10.7504 14.449 11.1236 14.6273C11.4974 14.8059 11.6556 15.2536 11.4771 15.6274C11.2985 16.0012 10.8508 16.1594 10.477 15.9809C9.95224 15.7301 9.46118 15.3877 9.02825 14.9547C8.45558 14.382 8.04184 13.7081 7.78884 12.9897C7.65124 12.599 7.85642 12.1707 8.24712 12.0331Z" fill="black"/>
</svg>

<svg xmlns="http://www.w3.org/2000/svg" viewBox="0 0 24 24" fill="currentColor" aria-hidden="true" data-slot="icon">
  <path fill-rule="evenodd" d="M19.892 4.09a3.75 3.75 0 0 0-5.303 0l-4.5 4.5c-.074.074-.144.15-.21.229l4.965 4.966a3.75 3.75 0 0 0-1.986-4.428.75.75 0 0 1 .646-1.353 5.253 5.253 0 0 1 2.502 6.944l5.515 5.515a.75.75 0 0 1-1.061 1.06l-18-18.001A.75.75 0 0 1 3.521 2.46l5.294 5.295a5.31 5.31 0 0 1 .213-.227l4.5-4.5a5.25 5.25 0 1 1 7.425 7.425l-1.757 1.757a.75.75 0 1 1-1.06-1.06l1.756-1.757a3.75 3.75 0 0 0 0-5.304ZM5.846 11.773a.75.75 0 0 1 0 1.06l-1.757 1.758a3.75 3.75 0 0 0 5.303 5.304l3.129-3.13a.75.75 0 1 1 1.06 1.061l-3.128 3.13a5.25 5.25 0 1 1-7.425-7.426l1.757-1.757a.75.75 0 0 1 1.061 0Zm2.401.26a.75.75 0 0 1 .957.458c.18.512.474.992.885 1.403.31.311.661.555 1.035.733a.75.75 0 0 1-.647 1.354 5.244 5.244 0 0 1-1.449-1.026 5.232 5.232 0 0 1-1.24-1.965.75.75 0 0 1 .46-.957Z" clip-rule="evenodd"/>
</svg>
